images/mettalex.svg

<svg height="250" viewBox="0 0 250 250" width="250" xmlns="http://www.w3.org/2000/svg"><g fill="#3f34a7"><path d="m1.738281 0h12.238281c.941407 0 1.703126.882812 1.703126 1.972656v246.054688c0 1.089844-.761719 1.972656-1.703126 1.972656h-12.238281c-.941406 0-1.707031-.882812-1.707031-1.972656v-246.054688c0-1.089844.765625-1.972656 1.707031-1.972656zm0 0"/><path d="m31.027344 26.480469h12.238281c.941406 0 1.707031.882812 1.707031 1.972656v191.125c0 1.085937-.765625 1.96875-1.707031 1.96875h-12.238281c-.941406 0-1.707032-.882813-1.707032-1.96875v-191.125c0-1.089844.765626-1.972656 1.707032-1.972656zm0 0"/><path d="m60.316406 44.957031h12.238282c.941406 0 1.707031.882813 1.707031 1.972657v189.335937c0 1.089844-.765625 1.972656-1.707031 1.972656h-12.238282c-.941406 0-1.703125-.882812-1.703125-1.972656v-189.335937c0-1.089844.761719-1.972657 1.703125-1.972657zm0 0"/><path d="m89.589844 74.375h12.238281c.941406 0 1.707031.882812 1.707031 1.972656v153.019532c0 1.089843-.765625 1.972656-1.707031 1.972656h-12.238281c-.941406 0-1.703125-.882813-1.703125-1.972656v-153.019532c0-1.089844.761719-1.972656 1.703125-1.972656zm0 0"/><path d="m118.878906 100.878906h12.242188c.941406 0 1.703125.882813 1.703125 1.96875v144.195313c0 1.089843-.761719 1.972656-1.703125 1.972656h-12.242188c-.941406 0-1.703125-.882813-1.703125-1.972656v-144.195313c0-1.085937.761719-1.96875 1.703125-1.96875zm0 0"/><path d="m236.023438 0h12.238281c.941406 0 1.707031.882812 1.707031 1.972656v246.054688c0 1.089844-.765625 1.972656-1.707031 1.972656h-12.238281c-.941407 0-1.703126-.882812-1.703126-1.972656v-246.054688c0-1.089844.761719-1.972656 1.703126-1.972656zm0 0"/><path d="m206.734375 26.480469h12.238281c.941406 0 1.707032.882812 1.707032 1.972656v191.125c0 1.085937-.765626 1.96875-1.707032 1.96875h-12.238281c-.941406 0-1.707031-.882813-1.707031-1.96875v-191.125c0-1.089844.765625-1.972656 1.707031-1.972656zm0 0"/><path d="m177.460938 44.957031h12.238281c.941406 0 1.707031.882813 1.707031 1.972657v189.335937c0 1.089844-.765625 1.972656-1.707031 1.972656h-12.238281c-.941407 0-1.703126-.882812-1.703126-1.972656v-189.335937c0-1.089844.761719-1.972657 1.703126-1.972657zm0 0"/><path d="m148.171875 74.394531h12.238281c.941406 0 1.703125.882813 1.703125 1.972657v153.023437c0 1.085937-.761719 1.96875-1.703125 1.96875h-12.238281c-.941406 0-1.707031-.882813-1.707031-1.96875v-153.023437c0-1.089844.765625-1.972657 1.707031-1.972657zm0 0"/></g></svg>

<svg xmlns="http://www.w3.org/2000/svg" width="250" height="250"><g fill="#3f34a7"><path d="M1.738 0h12.239c.941 0 1.703.883 1.703 1.973v246.054c0 1.09-.762 1.973-1.703 1.973H1.738c-.941 0-1.707-.883-1.707-1.973V1.973C.031.883.797 0 1.738 0zM31.027 26.48h12.239c.941 0 1.707.883 1.707 1.973v191.125c0 1.086-.766 1.969-1.707 1.969H31.027c-.941 0-1.707-.883-1.707-1.969V28.453c0-1.09.766-1.973 1.707-1.973zM60.316 44.957h12.239c.941 0 1.707.883 1.707 1.973v189.336c0 1.09-.766 1.972-1.707 1.972H60.316c-.941 0-1.703-.883-1.703-1.972V46.93c0-1.09.762-1.973 1.703-1.973zM89.59 74.375h12.238c.942 0 1.707.883 1.707 1.973v153.02c0 1.089-.765 1.972-1.707 1.972H89.59c-.942 0-1.703-.883-1.703-1.973V76.347c0-1.09.761-1.972 1.703-1.972zM118.879 100.879h12.242c.941 0 1.703.883 1.703 1.969v144.195c0 1.09-.762 1.973-1.703 1.973H118.88c-.942 0-1.703-.883-1.703-1.973V102.848c0-1.086.761-1.97 1.703-1.97zM236.023 0h12.239c.941 0 1.707.883 1.707 1.973v246.054c0 1.09-.766 1.973-1.707 1.973h-12.239c-.941 0-1.703-.883-1.703-1.973V1.973c0-1.09.762-1.973 1.703-1.973zM206.734 26.48h12.239c.941 0 1.707.883 1.707 1.973v191.125c0 1.086-.766 1.969-1.707 1.969h-12.239c-.941 0-1.707-.883-1.707-1.969V28.453c0-1.09.766-1.973 1.707-1.973zM177.46 44.957h12.24c.94 0 1.706.883 1.706 1.973v189.336c0 1.09-.765 1.972-1.707 1.972h-12.238c-.941 0-1.703-.883-1.703-1.972V46.93c0-1.09.762-1.973 1.703-1.973zM148.172 74.395h12.238c.942 0 1.703.882 1.703 1.972v153.024c0 1.086-.761 1.968-1.703 1.968h-12.238c-.942 0-1.707-.882-1.707-1.968V76.367c0-1.09.765-1.972 1.707-1.972zm0 0"/></g></svg>
